docs/assets/img/socials-sprite.svg

<svg xmlns="http://www.w3.org/2000/svg" xmlns:xlink="http://www.w3.org/1999/xlink">

    <symbol viewBox="0 0 32 32" id="facebook">
        <path d="M28.8 0H3.2C1.43269 0 0 1.43269 0 3.2V28.8C0 30.5673 1.43269 32 3.2 32H16V19.9529H11.2V15.4353H16V13.0093C16 8.41638 18.3835 6.4 22.2799 6.4C24.1094 6.4 25.0937 6.53027 25.5719 6.59356L25.6 6.59727V10.9176H22.9424C21.2885 10.9176 20.8 11.773 20.8 13.5048V15.4353H25.5585L24.9006 19.9529H20.8V32H28.8C30.5673 32 32 30.5673 32 28.8V3.2C32 1.43269 30.5673 0 28.8 0Z" fill-opacity="0.9"/>
    </symbol>
    <symbol viewBox="0 0 32 32" id="twitter">
        <path fill-rule="evenodd" clip-rule="evenodd" d="M28.8 0H3.2C1.43269 0 0 1.43269 0 3.2V28.8C0 30.5673 1.43269 32 3.2 32H28.8C30.5673 32 32 30.5673 32 28.8V3.2C32 1.43269 30.5673 0 28.8 0ZM24.5603 9.98298C25.4899 9.87553 26.3755 9.63729 27.2 9.28328C26.584 10.1737 25.8044 10.9559 24.9058 11.5831C24.9144 11.7739 24.9187 11.9655 24.9187 12.1579C24.9187 18.0296 20.2976 24.8 11.8445 24.8C9.24881 24.8 6.83401 24.0645 4.8 22.8042C5.16011 22.8458 5.52625 22.8667 5.8967 22.8667C8.05046 22.8667 10.0319 22.1561 11.6042 20.9641C9.59342 20.9283 7.89625 19.643 7.31129 17.878C7.59128 17.9288 7.87988 17.9571 8.17538 17.9571C8.59493 17.9571 9.00156 17.9029 9.38665 17.8013C7.28372 17.394 5.70027 15.5981 5.70027 13.4448V13.389C6.3197 13.7214 7.02871 13.9213 7.78167 13.9446C6.54886 13.1483 5.73818 11.788 5.73818 10.247C5.73818 9.43155 5.96476 8.66854 6.35932 8.01215C8.62681 10.701 12.0125 12.4703 15.8316 12.6552C15.754 12.3311 15.7127 11.9913 15.7127 11.6431C15.7127 9.18999 17.77 7.2 20.308 7.2C21.6295 7.2 22.8236 7.73977 23.6618 8.60357C24.7094 8.40365 25.6932 8.03381 26.5806 7.52486C26.2377 8.56275 25.5097 9.43322 24.5603 9.98298Z" fill-opacity="0.9"/>
    </symbol>
    <symbol viewBox="0 0 32 32" id="linkedin">
        <path fill-rule="evenodd" clip-rule="evenodd" d="M28.8 0H3.2C1.43269 0 0 1.43269 0 3.2V28.8C0 30.5673 1.43269 32 3.2 32H28.8C30.5673 32 32 30.5673 32 28.8V3.2C32 1.43269 30.5673 0 28.8 0ZM6.4 7.30246C6.4 8.68399 7.5205 9.80638 8.9062 9.80638C10.2875 9.80638 11.4109 8.68399 11.4109 7.30246C11.4109 5.9224 10.2875 4.8 8.9062 4.8C7.52196 4.8 6.4 5.92094 6.4 7.30246ZM6.8007 25.6H11.0991V11.7819H6.8007V25.6ZM27.2 25.6H22.9045V18.8802C22.9045 17.2774 22.8753 15.216 20.6708 15.216C18.4341 15.216 18.0903 16.9615 18.0903 18.7637V25.6H13.7947V11.7819H17.9183V13.67H17.9766C18.5507 12.584 19.9524 11.4383 22.0433 11.4383C26.3957 11.4383 27.2 14.3003 27.2 18.0213V25.6Z" fill-opacity="0.9"/>
    </symbol>
    <symbol viewBox="0 0 32 32" id="instagram">
        <path fill-rule="evenodd" clip-rule="evenodd" d="M9.6 0H22.4C27.7019 0 32 4.29807 32 9.6V22.4C32 27.7019 27.7019 32 22.4 32H9.6C4.29807 32 0 27.7019 0 22.4V9.6C0 4.29807 4.29807 0 9.6 0ZM25.6 4.8C26.4 4.8 27.2 5.6 27.2 6.4C27.2 7.2 26.4 8 25.6 8C24.8 8 24 7.2 24 6.4C24 5.6 24.8 4.8 25.6 4.8ZM24 16C24 11.588 20.412 8 16 8C11.588 8 8 11.588 8 16C8 20.412 11.588 24 16 24C20.412 24 24 20.412 24 16ZM16 11.2C13.349 11.2 11.2 13.349 11.2 16C11.2 18.651 13.349 20.8 16 20.8C18.651 20.8 20.8 18.651 20.8 16C20.8 13.349 18.651 11.2 16 11.2Z" fill-opacity="0.9"/>
    </symbol>
</svg>

<svg xmlns="http://www.w3.org/2000/svg"><symbol viewBox="0 0 32 32" id="facebook"><path d="M28.8 0H3.2A3.2 3.2 0 000 3.2v25.6A3.2 3.2 0 003.2 32H16V19.953h-4.8v-4.518H16V13.01c0-4.594 2.384-6.61 6.28-6.61 1.83 0 2.814.13 3.292.194l.028.003v4.32h-2.658c-1.654 0-2.142.856-2.142 2.588v1.93h4.758l-.657 4.518H20.8V32h8a3.2 3.2 0 003.2-3.2V3.2A3.2 3.2 0 0028.8 0z" fill-opacity=".9"/></symbol><symbol viewBox="0 0 32 32" id="twitter"><path fill-rule="evenodd" clip-rule="evenodd" d="M28.8 0H3.2A3.2 3.2 0 000 3.2v25.6A3.2 3.2 0 003.2 32h25.6a3.2 3.2 0 003.2-3.2V3.2A3.2 3.2 0 0028.8 0zm-4.24 9.983a9.42 9.42 0 002.64-.7 9.186 9.186 0 01-2.294 2.3c.008.19.013.383.013.575 0 5.872-4.621 12.642-13.075 12.642-2.595 0-5.01-.736-7.044-1.996.36.042.726.063 1.097.063a9.42 9.42 0 005.707-1.903c-2.01-.036-3.708-1.321-4.293-3.086a4.746 4.746 0 002.075-.077C7.285 17.394 5.7 15.598 5.7 13.445v-.056c.62.332 1.329.532 2.082.556-1.233-.797-2.044-2.157-2.044-3.698 0-.815.227-1.578.621-2.235 2.268 2.689 5.653 4.458 9.473 4.643a4.348 4.348 0 01-.12-1.012c0-2.453 2.058-4.443 4.596-4.443 1.322 0 2.516.54 3.354 1.404a9.408 9.408 0 002.919-1.08 4.48 4.48 0 01-2.02 2.459z" fill-opacity=".9"/></symbol><symbol viewBox="0 0 32 32" id="linkedin"><path fill-rule="evenodd" clip-rule="evenodd" d="M28.8 0H3.2A3.2 3.2 0 000 3.2v25.6A3.2 3.2 0 003.2 32h25.6a3.2 3.2 0 003.2-3.2V3.2A3.2 3.2 0 0028.8 0zM6.4 7.302a2.505 2.505 0 005.01 0 2.506 2.506 0 00-5.01 0zM6.8 25.6h4.3V11.782H6.8V25.6zm20.4 0h-4.296v-6.72c0-1.603-.029-3.664-2.233-3.664-2.237 0-2.58 1.746-2.58 3.548V25.6h-4.296V11.782h4.123v1.888h.059c.574-1.086 1.975-2.232 4.066-2.232 4.353 0 5.157 2.862 5.157 6.583V25.6z" fill-opacity=".9"/></symbol><symbol viewBox="0 0 32 32" id="instagram"><path fill-rule="evenodd" clip-rule="evenodd" d="M9.6 0h12.8A9.6 9.6 0 0132 9.6v12.8a9.6 9.6 0 01-9.6 9.6H9.6A9.6 9.6 0 010 22.4V9.6A9.6 9.6 0 019.6 0zm16 4.8c.8 0 1.6.8 1.6 1.6S26.4 8 25.6 8 24 7.2 24 6.4s.8-1.6 1.6-1.6zM24 16c0-4.412-3.588-8-8-8s-8 3.588-8 8 3.588 8 8 8 8-3.588 8-8zm-8-4.8a4.8 4.8 0 100 9.6 4.8 4.8 0 000-9.6z" fill-opacity=".9"/></symbol></svg>
